X:73
T:Bonnie at Morn
M:3/4
L:1/4
R:Waltz
Z:scot2.abc #40
K:Am
A|"Am"e>f e/d/|eA B/c/|"G"d>c B/A/|G>AB|1 "Am"e>f e/d/|"(F)"eA B/c/|
"G"d/B/GB|"Am(D)"A2:|2 "Am"A/G/ A/B/ c/d/|eag|"G"d<gB|"Am"A3|:"Am" A aa|A>Bc|
"G"Bgg|G>AB|"Am"A/G/ A/B/ c/d/|eag|"G"d<gB| A3:|
